src/images_karasa_jaga_svg/cmd/32/addfield.svg

<svg height="32" viewBox="0 0 31.999999 31.999999" width="32" xmlns="http://www.w3.org/2000/svg" xmlns:xlink="http://www.w3.org/1999/xlink"><linearGradient id="a" gradientUnits="userSpaceOnUse" x1="120" x2="120" y1="-36.584044" y2="99.800615"><stop offset="0" stop-color="#fff"/><stop offset="1" stop-color="#555"/></linearGradient><linearGradient id="b" gradientTransform="matrix(1.0384874 0 0 .91306627 2.461539 6.695545)" gradientUnits="userSpaceOnUse" x1="46.048" x2="46.048" y1="128.01709" y2="16.6203"><stop offset="0" stop-color="#c7cdd7"/><stop offset="1" stop-color="#fff"/></linearGradient><g transform="matrix(.25 0 0 .25 0 .064513)"><path d="m8 23.741943h108v76h-108z" fill="url(#b)"/><path d="m3.9999999 19.741946v4 16 4 16 4 16 4 15.999996 3.999998h4 20.0000001 4 28 4 28 4 20 4v-3.999998-15.999996-4-16-4-16-4-16-4h-4-20-4-28-4-28-4-20.0000001zm4 4h20.0000001v16h-20.0000001zm24.0000001 0h28v16h-28zm32 0h28v16h-28zm32 0h20v16h-20zm-88.0000001 20h20.0000001v16h-20.0000001zm24.0000001 0h28v16h-28zm32 0h28v16h-28zm32 0h20v16h-20zm-88.0000001 20h20.0000001v16h-20.0000001zm24.0000001 0h28v16h-28zm32 0h28v16h-28zm32 0h20v16h-20zm-88.0000001 20h20.0000001v15.999996h-20.0000001zm24.0000001 0h28v15.999996h-28zm32 0h28v15.999996h-28zm32 0h20v15.999996h-20z" fill="url(#a)"/><path d="m24 35.741947h44v32h-44z" fill="#fff" opacity=".85"/><path d="m28.000122 39.742066v4 16 4h4 28 4v-4-16-4h-4-28zm4 4h28v16h-28z" fill="#1a508f"/><path d="m32.000122 43.742065h27.999878v15.99988h-27.999878z" fill="#3ea6ff" opacity=".85"/></g></svg>

<?xml version="1.0" encoding="UTF-8" standalone="no"?>
<!-- Created with Inkscape (http://www.inkscape.org/) -->

<svg
   xmlns:dc="http://purl.org/dc/elements/1.1/"
   xmlns:cc="http://creativecommons.org/ns#"
   xmlns:rdf="http://www.w3.org/1999/02/22-rdf-syntax-ns#"
   xmlns:svg="http://www.w3.org/2000/svg"
   xmlns="http://www.w3.org/2000/svg"
   xmlns:xlink="http://www.w3.org/1999/xlink"
   xmlns:sodipodi="http://sodipodi.sourceforge.net/DTD/sodipodi-0.dtd"
   xmlns:inkscape="http://www.inkscape.org/namespaces/inkscape"
   id="svg2"
   version="1.1"
   inkscape:version="0.92.3 (unknown)"
   width="127.74194"
   height="127.74194"
   viewBox="0 0 127.74194 127.74194"
   sodipodi:docname="addfield.svg"
   inkscape:export-filename="/home/rizmut/Dokumen/Rizmut/Github/libreoffice-style-karasa-jaga/build/images_karasa_Jaga/cmd/32/addfield.png"
   inkscape:export-xdpi="24.048483"
   inkscape:export-ydpi="24.048483">
  <metadata
     id="metadata8">
    <rdf:RDF>
      <cc:Work
         rdf:about="">
        <dc:format>image/svg+xml</dc:format>
        <dc:type
           rdf:resource="http://purl.org/dc/dcmitype/StillImage" />
        <dc:title />
      </cc:Work>
    </rdf:RDF>
  </metadata>
  <defs
     id="defs6">
    <linearGradient
       id="linearGradient3895">
      <stop
         style="stop-color:#382a23;stop-opacity:1;"
         offset="0"
         id="stop3897" />
      <stop
         style="stop-color:#753919;stop-opacity:0;"
         offset="1"
         id="stop3899" />
    </linearGradient>
    <radialGradient
       id="XMLID_4_"
       cx="48"
       cy="-0.2148"
       r="55.147999"
       gradientTransform="matrix(0.9792,0,0,0.9725,133.0002,20.8762)"
       gradientUnits="userSpaceOnUse">
      <stop
         offset="0"
         style="stop-color:#fff718;stop-opacity:1;"
         id="stop3082" />
      <stop
         offset="1"
         style="stop-color:#e77100;stop-opacity:1;"
         id="stop3090" />
    </radialGradient>
    <linearGradient
       id="linearGradient3344">
      <stop
         id="stop3346"
         offset="0"
         style="stop-color:#fdff63;stop-opacity:1;" />
      <stop
         id="stop3348"
         offset="1"
         style="stop-color:#ffffff;stop-opacity:0;" />
    </linearGradient>
    <linearGradient
       y2="0"
       x2="28"
       y1="57.5"
       x1="28"
       gradientUnits="userSpaceOnUse"
       id="XMLID_2_">
      <stop
         id="stop12"
         style="stop-color:#FFEA00"
         offset="0" />
      <stop
         id="stop14"
         style="stop-color:#FFCC00"
         offset="1" />
    </linearGradient>
    <linearGradient
       id="linearGradient3919"
       gradientUnits="userSpaceOnUse"
       x1="28"
       y1="57.5"
       x2="28"
       y2="0">
      <stop
         offset="0"
         style="stop-color:#FFEA00"
         id="stop3921" />
      <stop
         offset="1"
         style="stop-color:#dea200;stop-opacity:1"
         id="stop3923" />
    </linearGradient>
    <radialGradient
       id="radialGradient15384"
       cx="48"
       cy="-0.2148"
       r="55.147999"
       gradientTransform="matrix(0.9792,0,0,0.9725,133.0002,20.8762)"
       gradientUnits="userSpaceOnUse">
      <stop
         offset="0"
         style="stop-color:#fff718;stop-opacity:1;"
         id="stop15386" />
      <stop
         offset="1"
         style="stop-color:#e77100;stop-opacity:1;"
         id="stop15388" />
    </radialGradient>
    <linearGradient
       id="linearGradient18668"
       gradientUnits="userSpaceOnUse"
       x1="28"
       y1="57.5"
       x2="28"
       y2="0">
      <stop
         offset="0"
         style="stop-color:#fffccf;stop-opacity:1;"
         id="stop18670" />
      <stop
         offset="1"
         style="stop-color:white;stop-opacity:0;"
         id="stop18672" />
    </linearGradient>
    <linearGradient
       id="linearGradient3825">
      <stop
         style="stop-color:#ffffff;stop-opacity:0;"
         offset="0"
         id="stop3827" />
      <stop
         id="stop3833"
         offset="0.5"
         style="stop-color:#ffffff;stop-opacity:0.18705036;" />
      <stop
         style="stop-color:#ffffff;stop-opacity:1;"
         offset="1"
         id="stop3829" />
    </linearGradient>
    <linearGradient
       id="linearGradient3711"
       gradientUnits="userSpaceOnUse"
       x1="-84.002403"
       y1="-383.9971"
       x2="-23.516129"
       y2="-383.9975"
       gradientTransform="matrix(0,1,-1,0,-39.9985,140.0029)">
      <stop
         offset="0"
         style="stop-color:white;stop-opacity:1;"
         id="stop3713" />
      <stop
         offset="1"
         style="stop-color:white;stop-opacity:0"
         id="stop3715" />
    </linearGradient>
    <linearGradient
       id="XMLID_9_"
       gradientUnits="userSpaceOnUse"
       x1="94.343803"
       y1="102.3447"
       x2="86.535599"
       y2="94.536598">
      <stop
         offset="0"
         style="stop-color:#FFFFFF"
         id="stop62" />
      <stop
         offset="1"
         style="stop-color:#555753"
         id="stop64" />
    </linearGradient>
    <linearGradient
       y2="95.292999"
       x2="87.292999"
       y1="103"
       x1="95"
       gradientUnits="userSpaceOnUse"
       id="linearGradient4175">
      <stop
         id="stop4177"
         style="stop-color:#000000;stop-opacity:1"
         offset="0" />
      <stop
         id="stop4179"
         style="stop-color:#393B38"
         offset="1" />
    </linearGradient>
    <linearGradient
       id="XMLID_12_"
       gradientUnits="userSpaceOnUse"
       x1="96"
       y1="104"
       x2="88.000198"
       y2="96.000198">
      <stop
         offset="0"
         style="stop-color:#888A85"
         id="stop83" />
      <stop
         offset="0.0072"
         style="stop-color:#8C8E89"
         id="stop85" />
      <stop
         offset="0.0673"
         style="stop-color:#ABACA9"
         id="stop87" />
      <stop
         offset="0.1347"
         style="stop-color:#C5C6C4"
         id="stop89" />
      <stop
         offset="0.2115"
         style="stop-color:#DBDBDA"
         id="stop91" />
      <stop
         offset="0.3012"
         style="stop-color:#EBEBEB"
         id="stop93" />
      <stop
         offset="0.4122"
         style="stop-color:#F7F7F6"
         id="stop95" />
      <stop
         offset="0.5679"
         style="stop-color:#FDFDFD"
         id="stop97" />
      <stop
         offset="1"
         style="stop-color:#FFFFFF"
         id="stop99" />
    </linearGradient>
    <radialGradient
       id="XMLID_8_"
       cx="102"
       cy="112.3047"
       r="139.55859"
       gradientUnits="userSpaceOnUse">
      <stop
         offset="0"
         style="stop-color:#535557"
         id="stop37" />
      <stop
         offset="0.11366145"
         style="stop-color:#898A8C"
         id="stop41" />
      <stop
         offset="0.20296688"
         style="stop-color:#ECECEC"
         id="stop47" />
      <stop
         offset="0.2363"
         style="stop-color:#FAFAFA"
         id="stop49" />
      <stop
         offset="0.2722"
         style="stop-color:#FFFFFF"
         id="stop51" />
      <stop
         offset="0.5313"
         style="stop-color:#FAFAFA"
         id="stop53" />
      <stop
         offset="0.8449"
         style="stop-color:#EBECEC"
         id="stop55" />
      <stop
         offset="1"
         style="stop-color:#E1E2E3"
         id="stop57" />
    </radialGradient>
    <radialGradient
       id="XMLID_7_"
       cx="102"
       cy="112.3047"
       r="139.5585"
       gradientUnits="userSpaceOnUse">
      <stop
         offset="0"
         style="stop-color:#00537D"
         id="stop16" />
      <stop
         offset="0.0151"
         style="stop-color:#186389"
         id="stop18" />
      <stop
         offset="0.0558"
         style="stop-color:#558CA8"
         id="stop20" />
      <stop
         offset="0.0964"
         style="stop-color:#89AFC3"
         id="stop22" />
      <stop
         offset="0.1357"
         style="stop-color:#B3CCD8"
         id="stop24" />
      <stop
         offset="0.1737"
         style="stop-color:#D4E2E9"
         id="stop26" />
      <stop
         offset="0.2099"
         style="stop-color:#ECF2F5"
         id="stop28" />
      <stop
         offset="0.2435"
         style="stop-color:#FAFCFD"
         id="stop30" />
      <stop
         offset="0.2722"
         style="stop-color:#FFFFFF"
         id="stop32" />
    </radialGradient>
    <linearGradient
       gradientTransform="translate(-9.9999965e-8,-4.2580546)"
       inkscape:collect="always"
       xlink:href="#linearGradient10867"
       id="linearGradient4657"
       gradientUnits="userSpaceOnUse"
       x1="120"
       y1="-32.325989"
       x2="120"
       y2="104.05867" />
    <linearGradient
       id="linearGradient10867"
       inkscape:collect="always">
      <stop
         id="stop10869"
         offset="0"
         style="stop-color:#ffffff;stop-opacity:1" />
      <stop
         id="stop10871"
         offset="1"
         style="stop-color:#555555;stop-opacity:1" />
    </linearGradient>
    <linearGradient
       inkscape:collect="always"
       xlink:href="#linearGradient3323"
       id="linearGradient3733"
       x1="46.048"
       y1="128.01709"
       x2="46.048"
       y2="16.6203"
       gradientUnits="userSpaceOnUse"
       gradientTransform="matrix(1.0384874,0,0,0.91306627,2.461539,6.695545)" />
    <linearGradient
       id="linearGradient3323">
      <stop
         style="stop-color:#c7cdd7;stop-opacity:1;"
         offset="0"
         id="stop3325" />
      <stop
         style="stop-color:#ffffff;stop-opacity:1;"
         offset="1"
         id="stop3327" />
    </linearGradient>
  </defs>
  <sodipodi:namedview
     pagecolor="#ffffff"
     bordercolor="#666666"
     borderopacity="1"
     objecttolerance="10"
     gridtolerance="10"
     guidetolerance="10"
     inkscape:pageopacity="0"
     inkscape:pageshadow="2"
     inkscape:window-width="1366"
     inkscape:window-height="706"
     id="namedview4"
     showgrid="true"
     inkscape:snap-page="false"
     inkscape:zoom="2.8284271"
     inkscape:cx="-35.302992"
     inkscape:cy="95.927891"
     inkscape:window-x="0"
     inkscape:window-y="0"
     inkscape:window-maximized="1"
     inkscape:current-layer="svg2">
    <inkscape:grid
       type="xygrid"
       id="grid7561"
       spacingx="3.9999999"
       spacingy="3.9999999"
       empspacing="2" />
  </sodipodi:namedview>
  <rect
     y="23.741943"
     x="8"
     height="76"
     width="108"
     id="rect3723"
     style="fill:url(#linearGradient3733);fill-opacity:1;stroke:none" />
  <path
     inkscape:connector-curvature="0"
     style="fill:url(#linearGradient4657);fill-opacity:1;stroke:none"
     d="m 3.9999999,19.741946 v 4 16 4 16 4 16 4 15.999996 3.999998 h 4 H 28 h 4 28 4 28 4 20 4 v -3.999998 -15.999996 -4 -16 -4 -16 -4 -16 -4 H 116 96 92 64 60 32 28 7.9999999 Z m 4,4 H 28 v 16 H 7.9999999 Z m 24.0000001,0 h 28 v 16 H 32 Z m 32,0 h 28 v 16 H 64 Z m 32,0 h 20 v 16 H 96 Z m -88.0000001,20 H 28 v 16 H 7.9999999 Z m 24.0000001,0 h 28 v 16 H 32 Z m 32,0 h 28 v 16 H 64 Z m 32,0 h 20 v 16 H 96 Z m -88.0000001,20 H 28 v 16 H 7.9999999 Z m 24.0000001,0 h 28 v 16 H 32 Z m 32,0 h 28 v 16 H 64 Z m 32,0 h 20 v 16 H 96 Z m -88.0000001,20 H 28 V 99.741942 H 7.9999999 Z M 32,83.741946 H 60 V 99.741942 H 32 Z m 32,0 H 92 V 99.741942 H 64 Z m 32,0 h 20 V 99.741942 H 96 Z"
     id="rect3956" />
  <rect
     style="opacity:0.85;fill:#ffffff;fill-opacity:1;stroke:none;stroke-width:5.26221037;stroke-linecap:square;stroke-linejoin:bevel;stroke-miterlimit:4;stroke-dasharray:none;stroke-dashoffset:0;stroke-opacity:0.73039216"
     id="rect7563"
     width="44"
     height="32"
     x="24"
     y="35.741947" />
  <path
     sodipodi:nodetypes="cccccccccccccccccc"
     inkscape:connector-curvature="0"
     id="path7547"
     d="m 28.000122,39.742066 v 4 16 4 h 4 28 4 v -4 -16 -4 h -4 -28 z m 4,4 h 28 v 16 h -28 z"
     style="fill:#1a508f;fill-opacity:1;stroke:none" />
  <rect
     style="opacity:0.85;fill:#3ea6ff;fill-opacity:1;stroke:none;stroke-width:4.8579998;stroke-linecap:square;stroke-linejoin:bevel;stroke-miterlimit:4;stroke-dasharray:none;stroke-dashoffset:0;stroke-opacity:0.73039216"
     id="rect7568"
     width="27.999878"
     height="15.99988"
     x="32.000122"
     y="43.742065" />
</svg>
